X:189
T:Ranger's Frolick
M:6/4
L:1/8
B:Thompson's Compleat Collection of 200 Favourite Country Dances, vol. 1 (London, 1757)
Z:Transcribed and edited by Flynn Titford-Mock, 2007
Z:abc's:AK/Fiddler's Companion
K:G
G4G2 G4d2|B2G2B2 'tr"c4B2|G4G2 G4(3Bcd|A2F2A2 "tr"c4A2|G4G2 G4(3Bcd|B2G2B2 g4d2|
e2c2e2 d2B2d2|A2F2A2 "tr"c4A2::g3fg2 d2e2f2|g3fg2 d3cB2|g3fg2 d2e2f2|g3fg2 d3cB2|
(cd)e2c2 (de)f2d2|A2F2A2 "tr"c4A2::B2G2G2 A2D2D2|B2G2G2 c2B2A2|B2G2G2 A2D2D2|
A2F2A2 c4A2|B2G2G2 A2D2D2|g3fg2 d2c2B2|(cde2)c2 (Bcd2)B2|A2F2A2 c4A2:|

